X: 11227
T: Dust
R: three-two
M: 3/2
K: Edorian
E2 B2 e2 dE GABE|A2 A2AG E2 A2 AB|E2 B2 e2 dE GABE|AEdB AG E2 E2 dA|
E2 B2 e2 dE GAB2|A2a2a2 agab g2|E2 B2 e2 dE GABE|AE dBAG E2 E2 z2||
e2 g2 B2 Be age2|B2 eBAB b2 ag e2|e2 g2 B2 Be age2|B2 eB ae dB e2 z2|
e2 g2 B2 Be age2|B2 eBAB b2 ag e2|[M:2/2] b2 b2 bg d2|e2 e2 dA G2|
GA EA cc Ac|[M:3/2]ecg2 a4a4||

